packages/kaspersky-hexa-ui-icons/src/iconsSVGs/24/LicenseKey.svg

<svg width="24" height="24" viewBox="0 0 24 24" fill="none" xmlns="http://www.w3.org/2000/svg">
<path fill-rule="evenodd" clip-rule="evenodd" d="M2 12C2 9.23858 4.23858 7 7 7C9.41896 7 11.4367 8.71776 11.9 11H21C21.5523 11 22 11.4477 22 12C22 12.5523 21.5523 13 21 13H20V15.2107C20 15.763 19.5523 16.2107 19 16.2107C18.4477 16.2107 18 15.763 18 15.2107V13H11.9C11.4367 15.2822 9.41896 17 7 17C4.23858 17 2 14.7614 2 12ZM7 9C5.34315 9 4 10.3431 4 12C4 13.6569 5.34315 15 7 15C8.65685 15 10 13.6569 10 12C10 10.3431 8.65685 9 7 9Z" fill="black"/>
</svg>

<svg xmlns="http://www.w3.org/2000/svg" width="24" height="24" fill="none" viewBox="0 0 24 24"><path fill="#000" fill-rule="evenodd" d="M2 12c0-2.7614 2.2386-5 5-5 2.419 0 4.4367 1.7178 4.9 4H21c.5523 0 1 .4477 1 1s-.4477 1-1 1h-1v2.2107c0 .5523-.4477 1-1 1s-1-.4477-1-1V13h-6.1c-.4633 2.2822-2.481 4-4.9 4-2.7614 0-5-2.2386-5-5m5-3c-1.6569 0-3 1.3431-3 3s1.3431 3 3 3 3-1.3431 3-3-1.3431-3-3-3"/></svg>
